findly-builder/apps/searchassist/src/assets/icons/CTR.svg

<svg width="13" height="15" viewBox="0 0 13 15" fill="none" xmlns="http://www.w3.org/2000/svg">
<path d="M3.49216 0.992185C3.21482 0.996091 2.99607 1.22265 2.99997 1.5V2.5C2.99607 2.67969 3.09372 2.84765 3.24607 2.9375C3.40232 3.03125 3.59763 3.03125 3.75388 2.9375C3.90622 2.84765 4.00388 2.67969 3.99997 2.5V1.5C4.00388 1.36328 3.94919 1.23437 3.85544 1.13672C3.75779 1.04297 3.62888 0.988278 3.49216 0.992185ZM1.49216 1.99219C1.28904 1.99609 1.10544 2.11719 1.03122 2.30859C0.953099 2.49609 0.999974 2.71094 1.14841 2.85156L2.14841 3.85156C2.27341 3.98437 2.457 4.03515 2.63279 3.99219C2.80857 3.94531 2.94529 3.80859 2.99216 3.63281C3.03513 3.45703 2.98435 3.27344 2.85154 3.14844L1.85154 2.14844C1.75779 2.05078 1.62888 1.99219 1.49216 1.99219ZM5.49216 1.99609C5.35935 2 5.23825 2.05469 5.14841 2.14844L4.14841 3.14844C4.0156 3.27344 3.96482 3.45703 4.00779 3.63281C4.05466 3.80859 4.19138 3.94531 4.36716 3.99219C4.54294 4.03515 4.72654 3.98437 4.85154 3.85156L5.85154 2.85156C5.99997 2.71094 6.04294 2.49219 5.96482 2.30078C5.88279 2.11328 5.69529 1.99219 5.49216 1.99609ZM9.86326 2.01172C9.56247 2.04297 9.2656 2.16406 9.02732 2.38281C9.0195 2.38672 9.0156 2.39062 9.0156 2.39844L4.54685 6.75781C4.36325 6.51172 4.26169 6.33203 3.96091 6.03125C3.52341 5.59375 2.98435 5.27734 2.42966 5.10937C1.87107 4.94531 1.27341 4.92578 0.773412 5.22265C0.312474 5.49219 0.0780988 5.91406 0.0780988 5.91406C-0.0390882 6.09765 -0.0234632 6.33203 0.113255 6.49609L1.53122 8.21484L2.00779 11.082C2.02341 11.1797 2.06638 11.2734 2.13669 11.3437L4.86325 14.2187C4.86716 14.2227 4.87107 14.2266 4.87497 14.2305C5.8945 15.2539 7.57029 15.2539 8.59372 14.2305L9.04294 13.7812H8.83201C8.96872 13.7852 9.09372 13.7305 9.18747 13.6367L11.6133 11.1953H11.6093C12.1211 10.6836 12.2344 9.83594 11.7109 9.25781C11.5156 9.04297 11.2383 8.96484 10.9687 8.90234C10.9922 8.53515 10.8906 8.16797 10.6093 7.89062C10.4258 7.70312 10.1679 7.65234 9.92185 7.59375C9.98044 7.1914 9.91404 6.78125 9.60935 6.47656C9.5156 6.38281 9.38279 6.39453 9.27341 6.33594L11.0273 4.5625L11 4.58594C11.4726 4.16797 11.5273 3.51562 11.3047 2.95312C11.3164 2.82812 11.2851 2.70312 11.2109 2.60156C10.9531 2.25 10.5664 2.05078 10.1679 2.01172C10.0664 2 9.96482 2 9.86326 2.01172ZM10.0664 3C10.1953 3.01172 10.3203 3.07812 10.4062 3.19531C10.5547 3.39844 10.5273 3.67187 10.3398 3.83594C10.3281 3.84375 10.3203 3.85156 10.3125 3.85937L7.73435 6.47656H7.73044C7.55466 6.67578 7.56247 6.97656 7.75388 7.16406C7.94138 7.35156 8.24216 7.35937 8.43747 7.17969C8.57029 7.05078 8.76951 7.04687 8.90622 7.17969C8.90232 7.18359 8.90232 7.18359 8.90622 7.18359C9.03513 7.3164 9.03904 7.51172 8.90622 7.64844C8.90232 7.64844 8.90232 7.64844 8.90232 7.64844L8.69529 7.85937L8.69138 7.86328C8.50388 8.0625 8.50779 8.37109 8.7031 8.5625C8.89451 8.7539 9.207 8.75781 9.40232 8.5664C9.50779 8.46094 9.77341 8.46875 9.90622 8.59765C10.0351 8.73047 10.039 8.92578 9.90622 9.0625C9.90232 9.0625 9.89841 9.0664 9.89451 9.07031L9.78513 9.1875L9.77732 9.19531C9.58982 9.39062 9.59763 9.70312 9.79294 9.89453C9.98435 10.0859 10.2968 10.0859 10.4922 9.89062C10.582 9.80469 10.8828 9.83594 10.9687 9.92969C11.0625 10.0312 11.039 10.3555 10.9062 10.4883C10.9023 10.4883 10.9023 10.4883 10.9023 10.4883L8.48044 12.9297V12.9336L7.8906 13.5195C7.24607 14.1641 6.22263 14.1641 5.5781 13.5195L2.96872 10.7656L2.49216 7.91797C2.48044 7.83203 2.44138 7.75 2.38669 7.67969L1.16404 6.19922C1.21872 6.14844 1.22654 6.11328 1.28122 6.08594C1.44529 5.98828 1.76169 5.95703 2.1406 6.07031C2.52341 6.18359 2.93747 6.42969 3.24997 6.74219C3.62107 7.10937 4.08591 7.78125 4.08591 7.78125C4.16794 7.90234 4.30076 7.98437 4.44919 7.99609C4.59763 8.01172 4.74216 7.96094 4.85154 7.85937L9.69919 3.125C9.80857 3.02734 9.94138 2.98437 10.0664 3Z" fill="black"/>
</svg>

<svg width="13" height="15" fill="none" xmlns="http://www.w3.org/2000/svg"><path d="M3.492.992A.499.499 0 0 0 3 1.5v1a.5.5 0 1 0 1 0v-1a.504.504 0 0 0-.145-.363.504.504 0 0 0-.363-.145Zm-2 1a.5.5 0 0 0-.344.86l1 1a.498.498 0 1 0 .704-.704l-1-1a.5.5 0 0 0-.36-.156Zm4 .004a.492.492 0 0 0-.344.152l-1 1a.498.498 0 1 0 .704.704l1-1a.498.498 0 0 0-.36-.856Zm4.371.016a1.46 1.46 0 0 0-.836.37c-.007.005-.011.009-.011.016l-4.47 4.36c-.183-.246-.284-.426-.585-.727A3.709 3.709 0 0 0 2.43 5.11c-.559-.164-1.157-.183-1.657.114-.46.27-.695.691-.695.691a.493.493 0 0 0 .035.582l1.418 1.719.477 2.867a.475.475 0 0 0 .129.262l2.726 2.875.012.011a2.636 2.636 0 0 0 3.719 0l.449-.449h-.211a.48.48 0 0 0 .355-.144l2.426-2.442h-.004c.512-.511.625-1.36.102-1.937-.195-.215-.473-.293-.742-.356.023-.367-.078-.734-.36-1.011-.183-.188-.441-.239-.687-.297.058-.403-.008-.813-.313-1.117-.093-.094-.226-.082-.336-.141l1.754-1.774-.027.024c.473-.418.527-1.07.305-1.633a.512.512 0 0 0-.094-.351 1.466 1.466 0 0 0-1.043-.59 1.324 1.324 0 0 0-.305 0Zm.203.988a.474.474 0 0 1 .34.195.472.472 0 0 1-.066.64c-.012.009-.02.017-.027.024l-2.58 2.618H7.73a.498.498 0 0 0 .024.687.493.493 0 0 0 .683.016.329.329 0 0 1 .47 0c-.005.004-.005.004 0 .004a.324.324 0 0 1 0 .464h-.005l-.207.211-.004.004a.498.498 0 0 0 .012.7.497.497 0 0 0 .7.003c.105-.105.37-.097.503.032a.324.324 0 0 1 0 .464c-.004 0-.008.004-.011.008l-.11.117-.008.008a.498.498 0 0 0 .016.7.494.494 0 0 0 .7-.004c.089-.086.39-.055.476.039.094.101.07.425-.063.558h-.004L8.48 12.93v.004l-.59.586a1.624 1.624 0 0 1-2.312 0l-2.61-2.754-.476-2.848a.505.505 0 0 0-.105-.238L1.164 6.2c.055-.052.063-.087.117-.114.164-.098.48-.129.86-.016.382.114.796.36 1.109.672.371.367.836 1.04.836 1.04a.51.51 0 0 0 .766.078l4.847-4.735A.467.467 0 0 1 10.066 3Z" fill="#000"/></svg>
